svgs/thin/screwdriver-wrench.svg

<svg xmlns="http://www.w3.org/2000/svg" viewBox="0 0 512 512"><!--! Font Awesome Pro 6.0.0-alpha3 by @fontawesome - https://fontawesome.com License - https://fontawesome.com/license (Commercial License) --><path d="M227.3 378.1c-2.385-4.816-8.733-6.089-12.54-2.288l-102.3 102.1c-21.72 21.68-57.39 23.85-79.75 2.818c-23.13-21.77-23.56-58.06-1.217-80.37l150.5-150.2c3.027-3.02 3.027-7.918 0-10.94L181.7 238.8c-3.027-3.02-7.932-3.02-10.96 .002l-148.7 148.5c-28.43 28.38-29.88 76.27-1.078 104.3C34.93 505.2 53.07 512 71.23 512c18.47 0 36.91-7.031 50.1-21.09l103.8-103.6C228.4 384.9 228.9 381.2 227.3 378.1C227.3 378.1 227.4 378.2 227.3 378.1zM222.6 76.15C225.8 80.14 231.8 80.02 234.8 75.86c19.6-27.26 48.34-47.67 81.77-55.66c16.65-3.979 41.91-7 68.42-.0703l-81.38 81.24V208h106.8l81.56-81.48c5.381 22.35 5.301 45.41-.2422 68.54c-7.352 30.67-25.18 57.46-49.19 76.83c-3.512 2.834-3.631 8.162-.4355 11.35c2.775 2.766 7.447 3.307 10.5 .8438c26.64-21.53 46.55-51.21 54.72-85.3c6.369-26.58 5.941-52.31 .2383-76c-1.84-7.641-8.664-12.07-15.66-12.07c-4.07 0-8.195 1.498-11.43 4.73L403.8 192H319.7V108l76.69-76.56c8.791-8.777 4.875-24.1-7.213-27.01C377.1 1.545 364.6 .002 351.7 0c-12.64 0-25.64 1.484-38.85 4.641c-37.16 8.873-69.25 31.49-91.1 61.71C219.8 69.13 219.9 72.98 222.1 75.61C222.3 75.79 222.4 75.97 222.6 76.15zM63.22 432c0 8.836 7.176 16 16.03 16s16.03-7.164 16.03-16c0-8.838-7.178-16-16.03-16S63.22 423.2 63.22 432zM385.3 271.6c-29.41-29.38-75.94-30.82-107.5-5.082L200 188.7V101c0-2.5-1.172-4.844-3.156-6.375l-122-92.1c-3.141-2.438-7.656-2.125-10.5 .7187l-62 61.1C-.4844 67.2-.7969 71.67 1.641 74.86l93.01 121.1c1.516 2 3.859 3.156 6.359 3.156h87.69l77.79 77.79c-25.77 31.55-24.32 78.08 5.086 107.5l113.7 113.8C393.9 507.7 405.3 512 416.6 512s22.64-4.312 31.24-12.91l51.27-51.25c17.17-17.19 17.17-45.25 .0313-62.56L385.3 271.6zM184 184H104.1L18.61 70.73l52.11-52.12l113.3 86.37V184zM487.8 436.5l-51.27 51.25c-10.98 10.97-28.92 10.94-39.96-.0313l-113.7-113.8c-25.1-25.12-25.1-65.97 0-91.09c25.12-25.06 65.97-25.06 91.1 0l113.8 113.7C498.7 407.6 498.8 425.6 487.8 436.5z"/></svg>

<svg xmlns="http://www.w3.org/2000/svg" viewBox="0 0 512 512"><!-- Font Awesome Pro 6.0.0-alpha2 by @fontawesome - https://fontawesome.com License - https://fontawesome.com/license (Commercial License) --><path d="M227.309 378.07C224.925 373.254 218.614 372.059 214.807 375.859L112.536 477.953C90.817 499.635 55.141 501.805 32.79 480.771C9.663 459.006 9.225 422.715 31.573 400.406L182.081 250.158C185.108 247.139 185.108 242.24 182.081 239.221L181.706 238.844C178.678 235.824 173.774 235.824 170.749 238.846L22.014 387.32C-6.415 415.701 -7.87 463.59 20.936 491.592C34.93 505.197 53.067 512 71.233 512C89.704 512 108.141 504.969 122.229 490.906L226.012 387.303C228.415 384.904 228.895 381.262 227.386 378.225C227.36 378.172 227.335 378.121 227.309 378.07ZM222.575 76.154C225.802 80.145 231.837 80.021 234.831 75.857C254.43 48.594 283.167 28.186 316.6 20.201C333.255 16.223 358.511 13.201 385.02 20.131L303.637 101.375V208H410.45L492.009 126.521C497.389 148.875 497.309 171.936 491.766 195.061C484.415 225.73 466.587 252.525 442.577 271.889C439.065 274.723 438.946 280.051 442.141 283.236L442.343 283.438C445.118 286.203 449.589 286.543 452.637 284.08C479.28 262.551 499.184 232.865 507.354 198.783C513.723 172.203 513.296 146.473 507.593 122.783C505.753 115.143 498.928 110.715 491.934 110.715C487.864 110.715 483.739 112.213 480.501 115.445L403.811 192H319.665V108.002L396.354 31.445C405.145 22.668 401.229 7.346 389.141 4.436C377.141 1.545 364.616 0.002 351.721 0C339.079 0 326.079 1.484 312.87 4.641C275.71 13.514 243.62 36.133 221.774 66.35C219.762 69.131 219.919 72.979 222.126 75.609C222.276 75.791 222.427 75.973 222.575 76.154ZM63.22 432C63.22 440.836 70.395 448 79.247 448S95.276 440.836 95.276 432C95.276 423.162 88.098 416 79.247 416S63.22 423.162 63.22 432ZM385.3 271.568C355.891 242.193 309.356 240.744 277.807 266.486L200.011 188.697V101.012C200.011 98.512 198.839 96.168 196.854 94.637L74.848 1.639C71.708 -0.799 67.192 -0.486 64.348 2.357L2.345 64.355C-0.484 67.199 -0.796 71.668 1.641 74.855L94.647 196.852C96.163 198.852 98.507 200.008 101.007 200.008H188.698L266.491 277.797C240.718 309.344 242.169 355.879 271.577 385.285L385.284 499.094C393.94 507.688 405.286 512 416.614 512S439.255 507.688 447.85 499.094L499.118 447.846C516.29 430.658 516.29 402.596 499.149 385.285L385.3 271.568ZM184.011 184.01H104.975L18.612 70.73L70.723 18.607L184.011 104.98V184.01ZM487.803 436.533L436.536 487.781C425.552 498.75 407.614 498.719 396.581 487.75L282.889 373.973C257.794 348.848 257.794 308.006 282.889 282.881C308.014 257.82 348.86 257.82 373.987 282.881L487.803 396.564C498.743 407.627 498.759 425.564 487.803 436.533Z"/></svg>
